X:1
T:Kissimmee, 87.87 D
T:Kissimmee, 87.87 D
T:Henry Lake Gilmour, 1885
T:Public Domain Courtesy of the Cyber Hymnal™
C:Henry Lake Gilmour, 1885
Z:Public Domain
Z:Courtesy of the Cyber Hymnal™
%%score ( 1 2 ) ( 3 4 )
L:1/8
Q:1/4=90
M:3/4
K:F
V:1 treble 
V:2 treble 
V:3 bass 
V:4 bass 
V:1
 [FA]3 [CF] [CE][CF] | [Fd]>[Fc] [Ec]2 [EB]2 | [EB]3 [Ec] [Ge][Fd] | [Ec]>[EG] [FA]4 | %4
 [FA]3 [CF] [CE]F | [^Fd]>[Fc] [Gc]2 [G=B]2 | [GB]3 [GB] [FA]F | [EA]>[EG] [CF]4 | %8
 [Fc]3 [Fc] [F=B]>[Fc] | [Fd]>[Fc] [FA] [Ac]3 | [EG]3 [EG] [DG][DG] | [FA]>[F=B] (c2 _B2) | %12
 [FA]3 [Fc] [F=B][Fc] | [Af]>[Fc] [Fe] [Fd]3 | [Fc]3 [Fc] [F=B][Fc] | [EB]>[CG] [CF]4 |] %16
V:2
 x6 | x6 | x6 | x6 | x5 F | x6 | x5 F | x6 | x6 | x6 | x6 | x2 E4 | x6 | x6 | x6 | x6 |] %16
V:3
 [F,C]3 [F,A,] [F,G,][F,A,] | [F,B,]>[F,A,] G,2 [G,C]2 | [C,G,]3 [C,G,] [C,B,][C,B,] | %3
 [C,G,]>[C,C] [F,C]4 | [F,C]3 [F,A,] [F,G,][F,A,] | [D,A,]>[D,D] [G,D]2 [G,D]2 | %6
 [E,C]3 [E,C] [F,C][F,A,] | [C,C]>[C,B,] [F,A,]4 | [F,A,]3 [F,A,] [F,^G,]>[F,A,] | %9
 [F,B,]>[F,A,] [F,C] [F,C]3 | [G,C]3 [G,C] [G,=B,][G,B,] | [G,=B,]>G, (G,2 C2) | %12
 [F,C]3 [F,A,] [F,^G,][F,A,] | [F,C]>[F,A,] [B,,C] [B,,B,]3 | [C,A,]3 [C,A,] [C,^G,][C,A,] | %15
 [C,G,]>[C,B,] [F,,F,A,]4 |] %16
V:4
 x6 | x2 G,2 x2 | x6 | x6 | x6 | x6 | x6 | x6 | x6 | x6 | x6 | x3/2 G,/ C,4 | x6 | x6 | x6 | x6 |] %16

